Newaita-dark/apps/22/workspace-switcher-right-top.svg

<svg height="22" viewBox="0 0 22 22" width="22" xmlns="http://www.w3.org/2000/svg" xmlns:xlink="http://www.w3.org/1999/xlink"><linearGradient id="a" gradientUnits="userSpaceOnUse" x1="10.4603136" x2="10.4603136" y1="19.27333515" y2="20.18292842919"><stop offset="0" stop-opacity=".27451"/><stop offset="1" stop-opacity="0"/></linearGradient><linearGradient id="b"><stop offset="0" stop-opacity=".313726"/><stop offset=".222222" stop-opacity=".27451"/><stop offset="1" stop-opacity="0"/></linearGradient><radialGradient id="c" cx="450.908936" cy="189.579361" gradientTransform="matrix(.00000012 -.0537161 -.0966889 -.00000007 36.749411 43.721791)" gradientUnits="userSpaceOnUse" r="21.166656" xlink:href="#b"/><radialGradient id="d" cx="450.908936" cy="189.579361" gradientTransform="matrix(-.00000012 .0537161 .0966889 .00000007 -14.919199 -5.175142)" gradientUnits="userSpaceOnUse" r="21.166656" xlink:href="#b"/><radialGradient id="e" cx="450.908936" cy="189.579361" gradientTransform="matrix(-.00000012 -.0537161 .0966889 -.00000007 -14.919199 43.721791)" gradientUnits="userSpaceOnUse" r="21.166656" xlink:href="#b"/><radialGradient id="f" cx="450.908936" cy="189.579361" gradientTransform="matrix(.00000012 .0537161 -.0966889 .00000007 36.74941 -5.175142)" gradientUnits="userSpaceOnUse" r="21.166656" xlink:href="#b"/><linearGradient id="g"><stop offset="0" stop-color="#b0bec5"/><stop offset="1" stop-color="#cfd8dc"/></linearGradient><linearGradient id="h" gradientTransform="matrix(.0495506 0 0 .131056 -3.375079 21.433838)" gradientUnits="userSpaceOnUse" x1="306.752655" x2="305.954529" xlink:href="#g" y1="-16.485477" y2="-141.414581"/><linearGradient id="i" gradientUnits="userSpaceOnUse" x1="10.9151166" x2="10.9151166" y1="19.27333515" y2="2.90066025"><stop offset="0" stop-color="#5c6bc0"/><stop offset="1" stop-color="#7986cb"/></linearGradient><linearGradient id="j" gradientUnits="userSpaceOnUse" x1="15.00827717081" x2="15.00827717081" xlink:href="#g" y1="12.90620115" y2="-3.46647375"/><path d="m3.183594 19.324219h15.464844v.859375h-15.464844zm0 0" fill="url(#a)"/><path d="m18.648438 19.273438h1.816406v-.910157h-1.816406zm0 0" fill="url(#c)"/><path d="m3.183594 19.273438h-1.820313v.910156h1.820313zm0 0" fill="url(#d)"/><path d="m3.183594 19.273438h-1.820313v-.910157h1.820313zm0 0" fill="url(#e)"/><path d="m18.648438 19.273438h1.816406v.910156h-1.816406zm0 0" fill="url(#f)"/><path d="m2.273438 2.902344h17.28125c.503906 0 .910156.382812.910156.855468v14.65625c0 .476563-.40625.859376-.910156.859376h-17.28125c-.5 0-.910157-.382813-.910157-.859376v-14.65625c0-.472656.410157-.855468.910157-.855468zm0 0" fill="url(#h)"/><path d="m2.730469 3.808594h16.371093c.25 0 .453126.207031.453126.457031v13.644531c0 .25-.203126.453125-.453126.453125h-16.371093c-.253907 0-.457031-.203125-.457031-.453125v-13.644531c0-.25.203124-.457031.457031-.457031zm0 0" fill="url(#i)"/><path d="m2.273438 2.902344c-.503907 0-.910157.382812-.910157.855468v.230469c0-.476562.40625-.859375.910157-.859375h17.28125c.503906 0 .910156.382813.910156.859375v-.230469c0-.472656-.40625-.855468-.910156-.855468zm0 0" fill="#fff" fill-opacity=".588235"/><path d="m2.273438 19.28125c-.503907 0-.910157-.382812-.910157-.859375v-.230469c0 .476563.40625.859375.910157.859375h17.28125c.503906 0 .910156-.382812.910156-.859375v.230469c0 .476563-.40625.859375-.910156.859375zm0 0" fill-opacity=".235294"/><path d="m52.904039-147.460995h402.143415c11.726153 0 21.179796 8.90824 21.179796 19.90719v341.058339c0 11.08985-9.453643 19.998091-21.179796 19.998091h-402.143415c-11.635253 0-21.179796-8.908241-21.179796-19.998091v-341.058339c0-10.99895 9.544543-19.90719 21.179796-19.90719zm0 0" fill="none" stroke="#212121" stroke-linecap="round" stroke-width="3" transform="matrix(.0429729 0 0 .0429729 0 9.239163)"/><path d="m2.730469 3.867188c-.253907 0-.457031.203124-.457031.453124v.171876c0-.25.203124-.453126.457031-.453126h16.371093c.25 0 .453126.203126.453126.453126v-.171876c0-.25-.203126-.453124-.453126-.453124zm0 0" fill-opacity=".235294"/><path d="m2.730469 18.597656c-.253907 0-.457031-.203125-.457031-.457031v-.171875c0 .253906.203124.457031.457031.457031h16.371093c.25 0 .453126-.203125.453126-.457031v.171875c0 .253906-.203126.457031-.453126.457031zm0 0" fill="#fff" fill-opacity=".588235"/><path d="m63.539387-126.3721h380.96362c5.817626 0 10.544447 4.817722 10.544447 10.635348v317.515133c0 5.817627-4.726821 10.544448-10.544447 10.544448h-380.96362c-5.908527 0-10.635348-4.726821-10.635348-10.544448v-317.515133c0-5.817626 4.726821-10.635348 10.635348-10.635348zm0 0" fill="none" stroke="#212121" stroke-linecap="round" stroke-linejoin="round" stroke-width="3" transform="matrix(.0429729 0 0 .0429729 0 9.239163)"/><path d="m2.730469 3.808594c-.253907 0-.457031.203125-.457031.457031v3.691406c5.078124-.636719 10.378906-.972656 15.828124-.972656.488282 0 .972657.003906 1.453126.007813v-2.726563c0-.253906-.203126-.457031-.453126-.457031zm0 0" fill="#fff" fill-opacity=".078431"/><path d="m11.371094 4.71875h6.820312c.25 0 .457032.203125.457032.457031v5.457031c0 .25-.207032.453126-.457032.453126h-6.820312c-.253906 0-.457032-.203126-.457032-.453126v-5.457031c0-.253906.203126-.457031.457032-.457031zm0 0" fill="url(#j)"/><path d="m11.371094 4.71875c-.253906 0-.457032.203125-.457032.457031v.226563c0-.253906.203126-.457032.457032-.457032h6.820312c.253906 0 .457032.203126.457032.457032v-.226563c0-.253906-.203126-.457031-.457032-.457031zm0 0" fill="#fff" fill-opacity=".588235"/><path d="m10.914062 10.632812v.339844c0 .253906.203126.457032.457032.457032h6.820312c.253906 0 .457032-.203126.457032-.457032v-.339844c0 .25-.203126.453126-.457032.453126h-6.820312c-.253906 0-.457032-.203126-.457032-.453126zm0 0" fill-opacity=".235294"/><path d="m84.694423 42.974123h158.712116c5.817627 0 10.635348 4.726822 10.635348 10.635348v126.987874c0 5.817626-4.817721 10.544447-10.635348 10.544447h-158.712116c-5.908527 0-10.635348-4.726821-10.635348-10.544447v-126.987874c0-5.908526 4.726821-10.635348 10.635348-10.635348zm0 0" fill="none" stroke="#212121" stroke-linecap="round" stroke-linejoin="round" stroke-width="2.901905" transform="matrix(.0429729 0 0 .0429729 7.731533 2.872029)"/></svg>

<?xml version="1.0" encoding="UTF-8"?>
<svg xmlns="http://www.w3.org/2000/svg" xmlns:xlink="http://www.w3.org/1999/xlink" width="22px" height="22px" viewBox="0 0 22 22" version="1.1">
<defs>
<linearGradient id="linear0" gradientUnits="userSpaceOnUse" x1="254" y1="233.5" x2="254" y2="254.666672" gradientTransform="matrix(0.0429729,0,0,0.0429729,-0.454803,9.239163)">
<stop offset="0" style="stop-color:rgb(0%,0%,0%);stop-opacity:0.27451;"/>
<stop offset="1" style="stop-color:rgb(0%,0%,0%);stop-opacity:0;"/>
</linearGradient>
<radialGradient id="radial0" gradientUnits="userSpaceOnUse" cx="450.908936" cy="189.579361" fx="450.908936" fy="189.579361" r="21.166656" gradientTransform="matrix(0.000000119742,-0.0537161,-0.0966889,-0.0000000698078,36.749411,43.721791)">
<stop offset="0" style="stop-color:rgb(0%,0%,0%);stop-opacity:0.313726;"/>
<stop offset="0.222222" style="stop-color:rgb(0%,0%,0%);stop-opacity:0.27451;"/>
<stop offset="1" style="stop-color:rgb(0%,0%,0%);stop-opacity:0;"/>
</radialGradient>
<radialGradient id="radial1" gradientUnits="userSpaceOnUse" cx="450.908936" cy="189.579361" fx="450.908936" fy="189.579361" r="21.166656" gradientTransform="matrix(-0.000000119742,0.0537161,0.0966889,0.0000000698078,-14.919199,-5.175142)">
<stop offset="0" style="stop-color:rgb(0%,0%,0%);stop-opacity:0.313726;"/>
<stop offset="0.222222" style="stop-color:rgb(0%,0%,0%);stop-opacity:0.27451;"/>
<stop offset="1" style="stop-color:rgb(0%,0%,0%);stop-opacity:0;"/>
</radialGradient>
<radialGradient id="radial2" gradientUnits="userSpaceOnUse" cx="450.908936" cy="189.579361" fx="450.908936" fy="189.579361" r="21.166656" gradientTransform="matrix(-0.000000119742,-0.0537161,0.0966889,-0.0000000698078,-14.919199,43.721791)">
<stop offset="0" style="stop-color:rgb(0%,0%,0%);stop-opacity:0.313726;"/>
<stop offset="0.222222" style="stop-color:rgb(0%,0%,0%);stop-opacity:0.27451;"/>
<stop offset="1" style="stop-color:rgb(0%,0%,0%);stop-opacity:0;"/>
</radialGradient>
<radialGradient id="radial3" gradientUnits="userSpaceOnUse" cx="450.908936" cy="189.579361" fx="450.908936" fy="189.579361" r="21.166656" gradientTransform="matrix(0.000000119742,0.0537161,-0.0966889,0.0000000698078,36.74941,-5.175142)">
<stop offset="0" style="stop-color:rgb(0%,0%,0%);stop-opacity:0.313726;"/>
<stop offset="0.222222" style="stop-color:rgb(0%,0%,0%);stop-opacity:0.27451;"/>
<stop offset="1" style="stop-color:rgb(0%,0%,0%);stop-opacity:0;"/>
</radialGradient>
<linearGradient id="linear1" gradientUnits="userSpaceOnUse" x1="306.752655" y1="-16.485477" x2="305.954529" y2="-141.414581" gradientTransform="matrix(0.0495506,0,0,0.131056,-3.375079,21.433838)">
<stop offset="0" style="stop-color:rgb(69.01961%,74.509805%,77.254903%);stop-opacity:1;"/>
<stop offset="1" style="stop-color:rgb(81.176472%,84.705883%,86.274511%);stop-opacity:1;"/>
</linearGradient>
<linearGradient id="linear2" gradientUnits="userSpaceOnUse" x1="254" y1="233.5" x2="254" y2="-147.5" gradientTransform="matrix(0.0429729,0,0,0.0429729,0,9.239163)">
<stop offset="0" style="stop-color:rgb(36.078432%,41.960785%,75.294119%);stop-opacity:1;"/>
<stop offset="1" style="stop-color:rgb(47.450981%,52.549022%,79.607844%);stop-opacity:1;"/>
</linearGradient>
<linearGradient id="linear3" gradientUnits="userSpaceOnUse" x1="169.333328" y1="233.5" x2="169.333328" y2="-147.5" gradientTransform="matrix(0.0429729,0,0,0.0429729,7.731533,2.872029)">
<stop offset="0" style="stop-color:rgb(69.01961%,74.509805%,77.254903%);stop-opacity:1;"/>
<stop offset="1" style="stop-color:rgb(81.176472%,84.705883%,86.274511%);stop-opacity:1;"/>
</linearGradient>
</defs>
<g id="surface1">
<path style=" stroke:none;fill-rule:nonzero;fill:url(#linear0);" d="M 3.183594 19.324219 L 18.648438 19.324219 L 18.648438 20.183594 L 3.183594 20.183594 Z M 3.183594 19.324219 "/>
<path style=" stroke:none;fill-rule:nonzero;fill:url(#radial0);" d="M 18.648438 19.273438 L 20.464844 19.273438 L 20.464844 18.363281 L 18.648438 18.363281 Z M 18.648438 19.273438 "/>
<path style=" stroke:none;fill-rule:nonzero;fill:url(#radial1);" d="M 3.183594 19.273438 L 1.363281 19.273438 L 1.363281 20.183594 L 3.183594 20.183594 Z M 3.183594 19.273438 "/>
<path style=" stroke:none;fill-rule:nonzero;fill:url(#radial2);" d="M 3.183594 19.273438 L 1.363281 19.273438 L 1.363281 18.363281 L 3.183594 18.363281 Z M 3.183594 19.273438 "/>
<path style=" stroke:none;fill-rule:nonzero;fill:url(#radial3);" d="M 18.648438 19.273438 L 20.464844 19.273438 L 20.464844 20.183594 L 18.648438 20.183594 Z M 18.648438 19.273438 "/>
<path style=" stroke:none;fill-rule:nonzero;fill:url(#linear1);" d="M 2.273438 2.902344 L 19.554688 2.902344 C 20.058594 2.902344 20.464844 3.285156 20.464844 3.757812 L 20.464844 18.414062 C 20.464844 18.890625 20.058594 19.273438 19.554688 19.273438 L 2.273438 19.273438 C 1.773438 19.273438 1.363281 18.890625 1.363281 18.414062 L 1.363281 3.757812 C 1.363281 3.285156 1.773438 2.902344 2.273438 2.902344 Z M 2.273438 2.902344 "/>
<path style=" stroke:none;fill-rule:nonzero;fill:url(#linear2);" d="M 2.730469 3.808594 L 19.101562 3.808594 C 19.351562 3.808594 19.554688 4.015625 19.554688 4.265625 L 19.554688 17.910156 C 19.554688 18.160156 19.351562 18.363281 19.101562 18.363281 L 2.730469 18.363281 C 2.476562 18.363281 2.273438 18.160156 2.273438 17.910156 L 2.273438 4.265625 C 2.273438 4.015625 2.476562 3.808594 2.730469 3.808594 Z M 2.730469 3.808594 "/>
<path style=" stroke:none;fill-rule:nonzero;fill:rgb(100%,100%,100%);fill-opacity:0.588235;" d="M 2.273438 2.902344 C 1.769531 2.902344 1.363281 3.285156 1.363281 3.757812 L 1.363281 3.988281 C 1.363281 3.511719 1.769531 3.128906 2.273438 3.128906 L 19.554688 3.128906 C 20.058594 3.128906 20.464844 3.511719 20.464844 3.988281 L 20.464844 3.757812 C 20.464844 3.285156 20.058594 2.902344 19.554688 2.902344 Z M 2.273438 2.902344 "/>
<path style=" stroke:none;fill-rule:nonzero;fill:rgb(0%,0%,0%);fill-opacity:0.235294;" d="M 2.273438 19.28125 C 1.769531 19.28125 1.363281 18.898438 1.363281 18.421875 L 1.363281 18.191406 C 1.363281 18.667969 1.769531 19.050781 2.273438 19.050781 L 19.554688 19.050781 C 20.058594 19.050781 20.464844 18.667969 20.464844 18.191406 L 20.464844 18.421875 C 20.464844 18.898438 20.058594 19.28125 19.554688 19.28125 Z M 2.273438 19.28125 "/>
<path style="fill:none;stroke-width:3;stroke-linecap:round;stroke-linejoin:miter;stroke:rgb(12.941177%,12.941177%,12.941177%);stroke-opacity:1;stroke-miterlimit:4;" d="M 52.904039 -147.460995 L 455.047454 -147.460995 C 466.773607 -147.460995 476.22725 -138.552755 476.22725 -127.553805 L 476.22725 213.504534 C 476.22725 224.594384 466.773607 233.502625 455.047454 233.502625 L 52.904039 233.502625 C 41.268786 233.502625 31.724243 224.594384 31.724243 213.504534 L 31.724243 -127.553805 C 31.724243 -138.552755 41.268786 -147.460995 52.904039 -147.460995 Z M 52.904039 -147.460995 " transform="matrix(0.0429729,0,0,0.0429729,0,9.239163)"/>
<path style=" stroke:none;fill-rule:nonzero;fill:rgb(0%,0%,0%);fill-opacity:0.235294;" d="M 2.730469 3.867188 C 2.476562 3.867188 2.273438 4.070312 2.273438 4.320312 L 2.273438 4.492188 C 2.273438 4.242188 2.476562 4.039062 2.730469 4.039062 L 19.101562 4.039062 C 19.351562 4.039062 19.554688 4.242188 19.554688 4.492188 L 19.554688 4.320312 C 19.554688 4.070312 19.351562 3.867188 19.101562 3.867188 Z M 2.730469 3.867188 "/>
<path style=" stroke:none;fill-rule:nonzero;fill:rgb(100%,100%,100%);fill-opacity:0.588235;" d="M 2.730469 18.597656 C 2.476562 18.597656 2.273438 18.394531 2.273438 18.140625 L 2.273438 17.96875 C 2.273438 18.222656 2.476562 18.425781 2.730469 18.425781 L 19.101562 18.425781 C 19.351562 18.425781 19.554688 18.222656 19.554688 17.96875 L 19.554688 18.140625 C 19.554688 18.394531 19.351562 18.597656 19.101562 18.597656 Z M 2.730469 18.597656 "/>
<path style="fill:none;stroke-width:3;stroke-linecap:round;stroke-linejoin:round;stroke:rgb(12.941177%,12.941177%,12.941177%);stroke-opacity:1;stroke-miterlimit:4;" d="M 63.539387 -126.3721 L 444.503007 -126.3721 C 450.320633 -126.3721 455.047454 -121.554378 455.047454 -115.736752 L 455.047454 201.778381 C 455.047454 207.596008 450.320633 212.322829 444.503007 212.322829 L 63.539387 212.322829 C 57.63086 212.322829 52.904039 207.596008 52.904039 201.778381 L 52.904039 -115.736752 C 52.904039 -121.554378 57.63086 -126.3721 63.539387 -126.3721 Z M 63.539387 -126.3721 " transform="matrix(0.0429729,0,0,0.0429729,0,9.239163)"/>
<path style=" stroke:none;fill-rule:nonzero;fill:rgb(100%,100%,100%);fill-opacity:0.0784314;" d="M 2.730469 3.808594 C 2.476562 3.808594 2.273438 4.011719 2.273438 4.265625 L 2.273438 7.957031 C 7.351562 7.320312 12.652344 6.984375 18.101562 6.984375 C 18.589844 6.984375 19.074219 6.988281 19.554688 6.992188 L 19.554688 4.265625 C 19.554688 4.011719 19.351562 3.808594 19.101562 3.808594 Z M 2.730469 3.808594 "/>
<path style=" stroke:none;fill-rule:nonzero;fill:url(#linear3);" d="M 11.371094 4.71875 L 18.191406 4.71875 C 18.441406 4.71875 18.648438 4.921875 18.648438 5.175781 L 18.648438 10.632812 C 18.648438 10.882812 18.441406 11.085938 18.191406 11.085938 L 11.371094 11.085938 C 11.117188 11.085938 10.914062 10.882812 10.914062 10.632812 L 10.914062 5.175781 C 10.914062 4.921875 11.117188 4.71875 11.371094 4.71875 Z M 11.371094 4.71875 "/>
<path style=" stroke:none;fill-rule:nonzero;fill:rgb(100%,100%,100%);fill-opacity:0.588235;" d="M 11.371094 4.71875 C 11.117188 4.71875 10.914062 4.921875 10.914062 5.175781 L 10.914062 5.402344 C 10.914062 5.148438 11.117188 4.945312 11.371094 4.945312 L 18.191406 4.945312 C 18.445312 4.945312 18.648438 5.148438 18.648438 5.402344 L 18.648438 5.175781 C 18.648438 4.921875 18.445312 4.71875 18.191406 4.71875 Z M 11.371094 4.71875 "/>
<path style=" stroke:none;fill-rule:nonzero;fill:rgb(0%,0%,0%);fill-opacity:0.235294;" d="M 10.914062 10.632812 L 10.914062 10.972656 C 10.914062 11.226562 11.117188 11.429688 11.371094 11.429688 L 18.191406 11.429688 C 18.445312 11.429688 18.648438 11.226562 18.648438 10.972656 L 18.648438 10.632812 C 18.648438 10.882812 18.445312 11.085938 18.191406 11.085938 L 11.371094 11.085938 C 11.117188 11.085938 10.914062 10.882812 10.914062 10.632812 Z M 10.914062 10.632812 "/>
<path style="fill:none;stroke-width:2.901905;stroke-linecap:round;stroke-linejoin:round;stroke:rgb(12.941177%,12.941177%,12.941177%);stroke-opacity:1;stroke-miterlimit:4;" d="M 84.694423 42.974123 L 243.406539 42.974123 C 249.224166 42.974123 254.041887 47.700945 254.041887 53.609471 L 254.041887 180.597345 C 254.041887 186.414971 249.224166 191.141792 243.406539 191.141792 L 84.694423 191.141792 C 78.785896 191.141792 74.059075 186.414971 74.059075 180.597345 L 74.059075 53.609471 C 74.059075 47.700945 78.785896 42.974123 84.694423 42.974123 Z M 84.694423 42.974123 " transform="matrix(0.0429729,0,0,0.0429729,7.731533,2.872029)"/>
</g>
</svg>
